Hatter-kde/actions/24/debug-step-over.svg

<svg xmlns="http://www.w3.org/2000/svg" viewBox="0 0 24 24">
  <defs id="defs3051">
    <style type="text/css" id="current-color-scheme">
      .ColorScheme-Text {
        color:#363636;
      }
      .ColorScheme-NeutralText {
        color:#f67400;
      }
      </style>
  </defs>
  <path style="fill:currentColor;fill-opacity:1;stroke:none" 
     d="M 4 4 L 4 8 L 4 20 L 5 20 L 20 20 L 20 19 L 20 10 L 19 10 L 19 19 L 5 19 L 5 8 L 14 8 L 14 6 L 14 4 L 4 4 z M 10.427734 10 C 9.3616444 10 8.9140625 10.352248 8.9140625 11.253906 L 8.9140625 12.476562 C 8.9140625 13.033475 8.8935575 13.677734 8.3046875 13.677734 L 8 13.677734 L 8 14.322266 L 8.3046875 14.322266 C 8.8935775 14.322266 8.9140625 14.966527 8.9140625 15.523438 L 8.9140625 16.746094 C 8.9140625 17.647754 9.3616444 18 10.427734 18 L 10.427734 17.408203 C 9.7170144 17.408203 9.7070312 17.169044 9.7070312 16.302734 L 9.7070312 15.294922 C 9.7070312 14.879462 9.583415 14.260256 8.984375 14.003906 C 9.583415 13.747556 9.7070312 13.130314 9.7070312 12.714844 L 9.7070312 11.697266 C 9.7070312 10.830962 9.7170344 10.591797 10.427734 10.591797 L 10.427734 10 z M 13.564453 10 L 13.564453 10.591797 C 14.275183 10.591797 14.292969 10.830963 14.292969 11.697266 L 14.292969 12.714844 C 14.292969 13.130314 14.416575 13.747556 15.015625 14.003906 C 14.416575 14.260256 14.292969 14.879462 14.292969 15.294922 L 14.292969 16.302734 C 14.292969 17.169044 14.275269 17.408203 13.564453 17.408203 L 13.564453 18 C 14.630553 18 15.085934 17.647754 15.085938 16.746094 L 15.085938 15.523438 C 15.085938 14.966525 15.126338 14.322266 15.705078 14.322266 L 16 14.322266 L 16 13.677734 L 15.705078 13.677734 C 15.126338 13.677734 15.085934 13.033473 15.085938 12.476562 L 15.085938 11.253906 C 15.085938 10.352248 14.630553 10 13.564453 10 z "
     class="ColorScheme-Text"
     />
  <path
     style="fill:currentColor;fill-opacity:1;stroke:none" 
     class="ColorScheme-NeutralText"
     d="M 16 4 L 18 7 L 20 4 L 16 4 z "
      />
</svg>

<?xml version="1.0" encoding="UTF-8"?>
<svg viewBox="0 0 24 24" xmlns="http://www.w3.org/2000/svg">
 <defs id="defs3051">
  <style id="current-color-scheme" type="text/css">.ColorScheme-Text {
        color:#363636;
      }
      .ColorScheme-NeutralText {
        color:#f67400;
      }</style>
 </defs>
 <path class="ColorScheme-Text" d="m4 4v4 12h1 15v-1-9h-1v9h-14v-11h9v-2-2h-10zm6.4277 6c-1.0661 0-1.5137 0.35225-1.5137 1.2539v1.2227c0 0.55691-0.020505 1.2012-0.60938 1.2012h-0.30469v0.64453h0.30469c0.58889 0 0.60938 0.64426 0.60938 1.2012v1.2227c0 0.90166 0.44758 1.2539 1.5137 1.2539v-0.5918c-0.71072 0-0.7207-0.23916-0.7207-1.1055v-1.0078c0-0.41546-0.12362-1.0347-0.72266-1.291 0.59904-0.25635 0.72266-0.87359 0.72266-1.2891v-1.0176c0-0.8663 0.010003-1.1055 0.7207-1.1055v-0.5918zm3.1367 0v0.5918c0.71073 0 0.72852 0.23917 0.72852 1.1055v1.0176c0 0.41547 0.12361 1.0327 0.72266 1.2891-0.59905 0.25635-0.72266 0.87556-0.72266 1.291v1.0078c0 0.86631-0.0177 1.1055-0.72852 1.1055v0.5918c1.0661 0 1.5215-0.35225 1.5215-1.2539v-1.2227c0-0.55691 0.0404-1.2012 0.61914-1.2012h0.29492v-0.64453h-0.29492c-0.57874 0-0.61914-0.64426-0.61914-1.2012v-1.2227c0-0.90166-0.45538-1.2539-1.5215-1.2539z" fill="currentColor"/>
 <path class="ColorScheme-NeutralText" d="m16 4 2 3 2-3h-4z" fill="currentColor"/>
</svg>
